X:363
T: So komm du des Abends (4-62), S. 80
N: P0623
O: Lothringen
S: PINCK, Louis: Verklingende Weisen Bd 4, Kassel 1939]
R: ???, Liebe]
M: 3/4
L: 1/8
K: E
E2 | B3=cB2 | A2=G2F2 | =G3AB2 | E4
F2 | A2=G2F2 | =G2F2E2 | D2E2F2 | B,6 |
A6 | =G2F2E2 | B2BA=G2 | F4=GF | E4

@@@ Tune index: 7913
